X: 1
T: The Boys Of The Lough
R: reel
M: 4/4
L: 1/8
K: Dmaj
dB|:AF (3FFF A2 AB|defd efdB|AF (3FFF ABAF|EDEF E2 FG|
|AF (3FFF A2 AB|defd efdB|AF (3FFF ABAF|1 EDEF D2 dB:|2 EDEF D2 de|
|:faag fgfe|dBBA GBdB|AF (3FFF ABde|fdgf e2 fg|
|abag fgfe|dBBA GBdB|AF (3FFF ABAF|1 EDEF D2 de:|2 EDEF D2 dB|


Tune 343	Setting 13136

